X:43
T:Flora Macdonald's Adieu to the Prince
T:Tha mi fo ghruaim
R:Slow Air
S:Simon Fraser Collection
N:No.219
O:Scottish
M:6/8
L:1/8
Q:3/8=80
K:A
F/|AFF F>ED|d>ed c<e z/c/|Bce f>ea|f>ed (c<B) z/F/|AFF F>ED|
d>ed c<e z/||c/|Bce f>aa|fed e>dc|d>ed c>ea|f>ed (c<B) z/||

